X: 16412
T: Gypsy Queens?
R: reel
M: 4/4
K: Gminor
|:D2AA A2A2|B2AG^FEF|A2A2 BAG^F|E3^F EDDD|D2AA A2A2|
GBAG G^FEF|GAG^F EFED|1 D=B,C^C D4:|2 D=B,C^C D2D=C||
|:=B,4 C4|D^FED- DCDC|=B2B2 C2C2|D^FED- DCDC|
=B,4 C4|D^FED- D4|^FG^GA- AF=GE|1 ^F2ED DEDC:|2 ^F2ED D4||
|:^FG^GA- AF=GE|^F2ED FG^GA|^FG^GA- AF=GE|^F2ED D4|
^FG^GA- AF=GE|^F2ED FG^GA|^FG^GA- AF=GE|^F2ED D4:|

